X:1
Q:1/4=105
L:1/8
M:2/4
K:C clef=G2
V:1
%%MIDI program 0
[cEG]31/16[G-c][G-]/2[Ge]31/64|[cE]15/8[GE]31/16|[e-G-B-]2[eGB]31/32[dF]31/32|[c-E]31/32[cD]31/32[GC]15/8|
[CFA]31/16[CFA]z/2[CFA]31/64|[B,FG]15/8[CEc]31/16|[GA,C]31/16[A,-C-G]31/32[A,CF]31/32|[CE]z/2[G,D]31/64[E,C]15/8|
G31/64[C-c-]3[Cc]3/8z3/16|Gz/2F15/32E15/8|D31/16Dz/2D15/32|C31/64zz/2[GD]z/2[cCF]31/128z/4|
[CcF]15/8[CcE]15/8|[B,-G][B,-]/2[B,F]31/64[EC]15/8|[DA,]31/16[G,-D][G,-]/2[D-G,]3/8|C2-C7/8zz3/16|
[Ec]31/64z2zz/2|[Ec]31/64z2zz/2|[Ece]31/64zz/2[Ece]31/64zz/2|[Eec]31/64z/2[Eec]31/64z/2[B-Ee]31/32[B-Dd]15/16|
[C-c]31/32[C-B]15/16[CA]15/8|[G,CE]62/16|[G,B,G]30/8z7/32|[A,EA]15/8[^DA]z/2[^DA]15/32|
[EG]15/8[FG]15/16z|[Ec]31/16[Gc]3/4z3/4[Fd]31/128z/4|[Ee]3/4z3/4[Gd]31/128z/4[Gc]3/4z3/4[^Fe]31/128z/4|[FGd]31/16[F-G-d-g-]2|
[FGdg]7/8zz/8[Ec]z/2[Ece]15/32|[dFc]31/16[dFB]31/32[e^FB]15/16|[EGc]31/16[EGc]z/2[EGc]15/32|[EGc]15/8z2|
[Ec]31/64z2zz/2|[Ec]31/64z2zz/2|[Ece]31/64zz/2[Ece]31/64zz/2|[Eec]31/64z/2[Eec]31/64z/2[B-Ee]31/32[B-Dd]15/16|
[C-c]31/32[C-B]15/16[CA]15/8|[G,CE]62/16|[G,B,G]30/8z7/32|[A,EA]15/8[^DA]z/2[^DA]15/32|
[EG]15/8[FG]15/16z|[Ec]31/16[Gc]3/4z3/4[Fd]31/128z/4|[Ee]3/4z3/4[Gd]31/128z/4[Gc]3/4z3/4[^Fe]31/128z/4|[FGd]31/16[F-G-d-g-]2|
[FGdg]7/8zz/8[Ec]z/2[Ece]15/32|[dFc]31/16[dFB]31/32[e^FB]15/16|[EGc]31/16[EGc]z/2[EGc]15/32|[EGc]15/8
L:1/8
M:2/4
K:C clef=F4
V:2
%%MIDI program 0
[C,C]31/16E,z/2C,31/64|A,15/8C31/16|[G,-]2[G,G,,]31/16|[C,-G,]15/16[C,-F,]15/16[E,C,]7/4|
F,31/16F,,31/16|G,,15/8A,,31/16|D,31/16[G,,-]2|[C,,-C,-G,,-]14/4[C,,-C,-G,,]3/16z7/32|
G,31/64[C,-]3/2[C,,C,]7/4|[G,,G,]z/2[F,,F,]15/32[E,,E,]15/8|[D,,D,]31/16[D,,D,]z/2[D,,D,]15/32|[C,,C,]31/64zz/2B,,z/2A,,31/128z/4|
A,,31/16G,,15/8|[G,,D,]31/16[A,,C,]15/8|[F,,D,]31/16G,,15/8|[C,,C,]31/16[C,,,C,,]31/64zz/2|
[C,G,]31/64zz/2[C,,G,,]31/64zz/2|[C,G,]31/64zz/2[C,,G,,]31/64zz/2|[G,,G,]31/64zz/2[^G,,^G,]31/64zz/2|[A,A,,]31/64z/2[^F,^F,,]31/64z/2[G,,-G,]31/32[G,,-F,]15/16|
[E,-A,,]31/32[E,-G,,]15/16[F,F,,]15/8|C,31/16C,,15/8|E,,31/16E,15/8|C,15/8[B,,^F,]z/2[B,,B,]15/32|
[E,B,]15/8[G,B,]15/16z|A,31/16[C,A,]3/4z3/4[C,A,]31/128z/4|[C,G,]3/4z3/4[F,G,]31/128z/4[E,C]3/4z3/4[D,C]31/128z/4|[G,B,]31/32[A,C]31/64z/2[G,B,]31/64z/2[D,A,]31/64z/2|
[G,B,]31/64zz/2A,z/2^F,15/32|[G,,D,A,]31/16[G,,-D,-G,]15/16[G,G,,]15/16|[C,G,]31/16[C,,,C,,]31/16|[C,E,G,C]31/32z2z|
[C,G,]31/64zz/2[C,,G,,]31/64zz/2|[C,G,]31/64zz/2[C,,G,,]31/64zz/2|[G,,G,]31/64zz/2[^G,,^G,]31/64zz/2|[A,A,,]31/64z/2[^F,^F,,]31/64z/2[G,,-G,]31/32[G,,-F,]15/16|
[E,-A,,]31/32[E,-G,,]15/16[F,F,,]15/8|C,31/16C,,15/8|E,,31/16E,15/8|C,15/8[B,,^F,]z/2[B,,B,]15/32|
[E,B,]15/8[G,B,]15/16z|A,31/16[C,A,]3/4z3/4[C,A,]31/128z/4|[C,G,]3/4z3/4[F,G,]31/128z/4[E,C]3/4z3/4[D,C]31/128z/4|[G,B,]31/32[A,C]31/64z/2[G,B,]31/64z/2[D,A,]31/64z/2|
[G,B,]31/64zz/2A,z/2^F,15/32|[G,,D,A,]31/16[G,,-D,-G,]15/16[G,G,,]15/16|[C,G,]31/16[C,,,C,,]31/16|[C,E,G,C]31/32z7/8


